carriers/postNl.svg

<svg width="128" height="64" viewBox="0 0 128 64" fill="none" xmlns="http://www.w3.org/2000/svg">
<rect width="128" height="64" rx="6" fill="white"/>
<path d="M46.922 2.00855C54.207 2.00855 65.9414 6.62161 73.7116 10.913C82.2943 15.6896 94.3559 25.3192 94.3559 31.9607C94.3559 39.0003 81.9726 48.39 73.7116 53.003C66.1813 57.1308 54.6923 61.9892 47.162 61.9892C45.4894 62.0658 43.8234 61.7326 42.309 61.0187C36.3982 57.6979 33.6445 43.6133 33.6445 31.9607C33.6236 26.1212 34.3307 20.3018 35.7493 14.6372C37.3851 8.48646 39.6371 4.43504 42.2926 2.89735C43.7465 2.24797 45.331 1.94377 46.922 2.00855Z" fill="#AFAFB0"/>
<path d="M92.3545 32.1189C92.3545 27.0915 82.8612 18.2797 72.7245 12.6961C61.0064 6.29996 47.7289 2.55389 43.3612 4.92041C38.421 7.67407 35.6455 21.4369 35.6455 32.1189C35.6455 42.8882 38.2356 56.4875 43.3394 59.3175C48.0342 61.9075 60.7393 58.1015 72.6372 51.4654C83.0248 45.8818 92.3545 37.4518 92.3545 32.1189Z" fill="url(#paint0_radial_5_12702)"/>
<path d="M79.0553 37.2172L78.9736 32.1188C78.9736 30.9847 78.4283 30.5375 77.6812 30.483C76.9527 30.5626 76.2696 30.8764 75.7346 31.3773V37.1409C75.7346 37.1611 75.7265 37.1805 75.7122 37.1948C75.6979 37.2092 75.6785 37.2172 75.6583 37.2172H73.3899C73.3899 37.2172 73.3081 37.2172 73.3081 37.1409V29.0435C73.3081 28.8799 73.3899 28.8035 73.5535 28.8035H75.5765C75.5765 28.8035 75.6583 28.8035 75.6583 28.8799V29.736C76.0012 29.452 76.3832 29.2188 76.7924 29.0435C77.31 28.8256 77.8667 28.7162 78.4283 28.7218C80.2931 28.7218 81.2637 29.7741 81.2637 31.7971V37.2172C81.2637 37.2389 81.2551 37.2597 81.2398 37.275C81.2244 37.2904 81.2036 37.299 81.1819 37.299L79.0772 37.2172M83.2867 37.2172L83.2049 24.7521C83.2049 24.6758 83.2049 24.6758 83.2867 24.6758C83.9353 24.9929 84.5357 25.4005 85.0698 25.8863C85.378 26.2166 85.5512 26.6505 85.5551 27.1023V37.0591C85.5551 37.0808 85.5465 37.1016 85.5311 37.1169C85.5158 37.1322 85.495 37.1409 85.4733 37.1409H83.2922" fill="white"/>
<path d="M58.4167 33.0132C58.4167 36.0067 56.4701 37.3754 54.0545 37.3754C51.6389 37.3754 49.6923 36.0013 49.6923 33.0132C49.6923 30.025 51.6389 28.6509 54.0545 28.6509C56.4701 28.6509 58.4167 30.025 58.4167 33.0132ZM55.9848 33.0132C55.9848 31.3773 55.1778 30.7448 54.1254 30.7448C53.073 30.7448 52.266 31.4755 52.266 33.0132C52.266 34.4691 53.073 35.2761 54.1254 35.2761C55.1778 35.2761 55.9848 34.5508 55.9848 33.0132ZM69.8294 26.5461C69.8294 26.4644 69.8294 26.4644 69.7476 26.4644C69.0889 26.7662 68.4861 27.1773 67.9646 27.6803C67.6553 28.0078 67.4818 28.4404 67.4793 28.8908V34.3436C67.4793 36.6938 68.8588 37.419 70.3147 37.419C70.6801 37.419 72.1632 37.3699 72.1741 36.8737V35.2706C72.1741 35.1888 72.1741 35.1888 72.0923 35.1888C71.7779 35.3031 71.4527 35.3853 71.1217 35.4342C70.3965 35.4342 69.9112 35.1125 69.9112 33.8965V30.8266C69.9112 30.7448 69.9112 30.7448 69.993 30.7448H72.016C72.0923 30.7448 72.0923 30.7448 72.0923 30.663V29.0272C72.097 29.0003 72.0964 28.9728 72.0904 28.9462C72.0845 28.9196 72.0733 28.8944 72.0576 28.8721C72.0419 28.8498 72.022 28.8309 71.9989 28.8163C71.9759 28.8017 71.9502 28.7919 71.9233 28.7872H69.9985C69.9167 28.7872 69.9167 28.7872 69.9167 28.7055L69.8294 26.5461ZM40.6079 29.1253C40.6105 29.062 40.6364 29.0019 40.6807 28.9565C40.725 28.9112 40.7846 28.8839 40.8478 28.8799H44.005C47.1622 28.8799 48.7816 30.7448 48.7816 33.1713C48.7816 35.5978 47.004 37.2991 44.005 37.2991H43.0344C42.9526 37.2991 42.9526 37.2991 42.9526 37.3808V41.3505C42.9526 41.4268 42.9526 41.4268 42.8763 41.4268C42.2187 41.1282 41.6174 40.7187 41.0987 40.2163C40.7904 39.886 40.6172 39.4521 40.6134 39.0003L40.6079 29.1253ZM46.4369 33.0132C46.4369 31.9608 45.7881 30.9847 44.005 30.9847H43.0344C42.9526 30.9847 42.9526 30.9847 42.9526 31.0665V34.9544C42.9526 35.0361 42.9526 35.0361 43.0344 35.0361H44.005C46.1098 35.0361 46.4369 33.5748 46.4369 33.0132ZM65.2164 32.686C64.4915 32.3556 63.7301 32.1121 62.948 31.9608C62.2173 31.7972 61.6502 31.6336 61.6502 31.2301C61.6502 30.8266 62.0592 30.5812 62.6263 30.5812C63.6201 30.6036 64.6035 30.7878 65.5381 31.1265C65.6199 31.1265 65.7017 31.1265 65.7017 31.0447V29.4089C65.7053 29.3563 65.6912 29.3041 65.6615 29.2605C65.6318 29.217 65.5883 29.1847 65.5381 29.1689C64.6966 28.9068 63.8273 28.7439 62.948 28.6836C62.0023 28.6288 61.0644 28.8834 60.2761 29.4089C59.9671 29.6288 59.7169 29.9214 59.5476 30.2609C59.3783 30.6004 59.2952 30.9763 59.3055 31.3555C59.3055 33.2149 60.8432 33.5366 62.2991 33.8638C62.5445 33.9456 62.4627 33.9456 62.5445 33.9456C63.1934 34.1037 63.9186 34.2673 63.9186 34.7526C63.9182 34.9032 63.8596 35.0478 63.755 35.1561C63.4741 35.3575 63.1273 35.4452 62.7844 35.4015C61.7154 35.3346 60.6568 35.1518 59.6272 34.8562C59.5509 34.8562 59.5509 34.938 59.5509 34.938V36.5738C59.5551 36.6239 59.5717 36.672 59.5994 36.714C59.627 36.7559 59.6647 36.7902 59.709 36.8138C60.656 37.1026 61.6368 37.2657 62.6263 37.2991C65.1346 37.2991 66.4432 36.3285 66.4432 34.5727C66.4025 34.1885 66.2717 33.8193 66.0613 33.4953C65.851 33.1712 65.567 32.9014 65.2327 32.7078" fill="#000963"/>
<path d="M50.4012 26.6168C50.2376 26.6168 50.0794 26.6168 50.0794 26.3715V25.4009C50.0765 25.3507 50.0835 25.3005 50.1 25.2531C50.1165 25.2056 50.1422 25.1619 50.1756 25.1244C50.2091 25.0869 50.2496 25.0564 50.2948 25.0346C50.3401 25.0128 50.3892 25.0001 50.4393 24.9974H57.6861C57.7362 24.9944 57.7865 25.0014 57.8339 25.0179C57.8813 25.0344 57.9251 25.0601 57.9625 25.0935C58 25.127 58.0306 25.1675 58.0524 25.2127C58.0742 25.258 58.0868 25.3071 58.0896 25.3572V26.2897C58.0896 26.535 58.0078 26.6168 57.7679 26.6168H50.4012ZM56.8791 24.0268H56.7155V23.8632C56.9609 23.1325 57.7679 20.8696 57.7679 20.8696C57.8023 20.8016 57.8084 20.7227 57.7849 20.6502C57.7614 20.5777 57.7102 20.5174 57.6425 20.4825H57.6043L57.2008 20.3189H57.119C57.0372 20.3189 56.9609 20.3189 56.9609 20.4007C56.7973 20.8042 56.7155 21.0495 56.5519 21.453C56.5519 21.5348 56.4701 21.5348 56.3938 21.5348H55.5813C55.4995 21.5348 55.4995 21.5348 55.4177 21.453V21.2895C55.6141 20.6256 55.8583 19.9768 56.1484 19.3483C56.2302 19.2665 56.312 19.0211 56.6337 19.0211H56.7973C57.0372 19.1029 57.3426 19.1847 57.6861 19.2665C58.0296 19.3483 58.2314 19.441 58.4986 19.5064C58.63 19.5446 58.7526 19.6084 58.8594 19.694C58.9662 19.7797 59.0551 19.8856 59.1209 20.0056C59.1867 20.1256 59.2283 20.2575 59.2431 20.3935C59.258 20.5296 59.2458 20.6673 59.2074 20.7987C59.1903 20.8568 59.1684 20.9133 59.142 20.9678C59.0602 21.2895 58.5967 22.6636 58.2532 23.476C58.1496 23.716 58.1059 24.0213 57.8497 24.0213L56.8791 24.0268ZM53.5583 24.1086C53.3947 24.1086 53.3947 23.945 53.3947 23.8632C53.3947 23.7814 53.3129 19.5718 53.3129 19.0047C53.3181 18.9419 53.3457 18.883 53.3908 18.839C53.4359 18.7949 53.4954 18.7686 53.5583 18.7648H54.6925C54.7553 18.7675 54.8148 18.7936 54.8592 18.8381C54.9036 18.8825 54.9297 18.942 54.9324 19.0047C54.9324 19.55 54.8561 23.7814 54.8561 23.8632C54.8561 23.945 54.8561 24.1086 54.6925 24.1086H53.5583ZM50.2376 24.1086C49.9649 24.0758 49.9322 23.7378 49.8341 23.5633C49.5124 22.7508 49.1088 21.4585 48.9453 21.055C48.7817 20.5097 48.7817 19.839 49.5941 19.5936C49.8341 19.5119 50.1394 19.4355 50.4012 19.3537C50.6629 19.2719 51.05 19.1901 51.29 19.1083H51.4535C51.5572 19.1111 51.6579 19.1434 51.7438 19.2013C51.8298 19.2592 51.8974 19.3405 51.9388 19.4355C52.2337 20.0621 52.478 20.7112 52.6695 21.3767V21.5403C52.6255 21.5839 52.5677 21.6109 52.5059 21.6166H51.6989C51.6171 21.6166 51.5353 21.6166 51.5353 21.5403C51.3718 21.1313 51.29 20.8096 51.1318 20.4879C51.0867 20.4449 51.0297 20.4164 50.9682 20.4061H50.9137L50.5102 20.5642C50.4733 20.5782 50.4395 20.5992 50.4107 20.6262C50.382 20.6532 50.3589 20.6857 50.3426 20.7216C50.3264 20.7576 50.3175 20.7964 50.3163 20.8358C50.3151 20.8752 50.3217 20.9145 50.3357 20.9514C50.3357 20.9514 51.1482 23.2143 51.3881 23.945V24.1086H50.2539H50.2376ZM54.0545 17.9469C53.9727 17.9469 53.9836 17.9469 53.8909 17.876C53.5666 17.6072 53.2689 17.3078 53.0021 16.9818C53.0021 16.9818 52.9203 16.9 53.0021 16.7418C53.2864 16.3813 53.6122 16.0555 53.9727 15.7712H54.1363C54.4958 16.0489 54.8183 16.3714 55.096 16.7309C55.1119 16.7423 55.1253 16.7567 55.1356 16.7733C55.1458 16.7899 55.1527 16.8084 55.1557 16.8277C55.1588 16.847 55.158 16.8667 55.1533 16.8856C55.1487 16.9046 55.1403 16.9224 55.1287 16.9381C55.1287 16.9381 55.1287 16.9381 55.096 16.9709C54.8361 17.3135 54.5296 17.6182 54.1854 17.876C54.0709 17.9578 54.0981 17.9469 54.0218 17.9469H54.0545Z" fill="white"/>
<defs>
<radialGradient id="paint0_radial_5_12702" cx="0" cy="0" r="1" gradientUnits="userSpaceOnUse" gradientTransform="translate(51.6441 23.5011) rotate(-1.29867) scale(37.2434 35.3681)">
<stop stop-color="#FFC429"/>
<stop offset="1" stop-color="#F26F23"/>
</radialGradient>
</defs>
</svg>

<svg xmlns="http://www.w3.org/2000/svg" width="128" height="64" fill="none"><rect width="128" height="64" fill="#fff" rx="6"/><path fill="#AFAFB0" d="M46.922 2.009c7.285 0 19.02 4.613 26.79 8.904 8.582 4.777 20.644 14.406 20.644 21.048 0 7.04-12.383 16.429-20.644 21.042-7.53 4.128-19.02 8.986-26.55 8.986a10.279 10.279 0 0 1-4.853-.97c-5.91-3.321-8.664-17.406-8.664-29.058a70.276 70.276 0 0 1 2.104-17.324c1.636-6.15 3.888-10.202 6.544-11.74a10.322 10.322 0 0 1 4.629-.888Z"/><path fill="url(#a)" d="M92.355 32.119c0-5.027-9.494-13.84-19.63-19.423C61.006 6.3 47.729 2.554 43.36 4.92c-4.94 2.754-7.715 16.517-7.715 27.199 0 10.77 2.59 24.368 7.693 27.199 4.695 2.59 17.4-1.216 29.298-7.853 10.388-5.583 19.718-14.013 19.718-19.346Z"/><path fill="#fff" d="m79.055 37.217-.081-5.098c0-1.134-.546-1.581-1.293-1.636a3.386 3.386 0 0 0-1.946.894v5.764a.076.076 0 0 1-.077.076H73.39s-.082 0-.082-.076v-8.097c0-.164.082-.24.245-.24h2.023s.082 0 .082.076v.856a4.647 4.647 0 0 1 1.134-.692 4.11 4.11 0 0 1 1.636-.322c1.865 0 2.836 1.052 2.836 3.075v5.42a.082.082 0 0 1-.082.082l-2.105-.082m4.21 0-.082-12.465c0-.076 0-.076.082-.076a7.632 7.632 0 0 1 1.783 1.21c.308.33.481.765.485 1.216v9.957a.081.081 0 0 1-.082.082h-2.18"/><path fill="#000963" d="M58.417 33.013c0 2.994-1.947 4.362-4.363 4.362-2.415 0-4.362-1.374-4.362-4.362s1.947-4.362 4.362-4.362c2.416 0 4.363 1.374 4.363 4.362Zm-2.432 0c0-1.636-.807-2.268-1.86-2.268-1.052 0-1.859.73-1.859 2.268 0 1.456.807 2.263 1.86 2.263 1.052 0 1.859-.725 1.859-2.263Zm13.844-6.467c0-.082 0-.082-.081-.082a6.42 6.42 0 0 0-1.783 1.216c-.31.328-.483.76-.486 1.21v5.454c0 2.35 1.38 3.075 2.836 3.075.365 0 1.848-.05 1.86-.545V35.27c0-.082 0-.082-.083-.082-.314.114-.64.196-.97.245-.725 0-1.21-.322-1.21-1.537v-3.07c0-.082 0-.082.081-.082h2.023c.076 0 .076 0 .076-.082v-1.636a.206.206 0 0 0-.169-.24H70c-.082 0-.082 0-.082-.081l-.088-2.16Zm-29.221 2.58a.257.257 0 0 1 .24-.246h3.157c3.157 0 4.777 1.865 4.777 4.291 0 2.427-1.778 4.128-4.777 4.128h-.97c-.082 0-.082 0-.082.082v3.97c0 .076 0 .076-.077.076a6.297 6.297 0 0 1-1.777-1.21A1.804 1.804 0 0 1 40.613 39l-.005-9.875Zm5.829 3.887c0-1.052-.649-2.028-2.432-2.028h-.97c-.082 0-.082 0-.082.082v3.887c0 .082 0 .082.081.082h.971c2.105 0 2.432-1.461 2.432-2.023Zm18.78-.327a10.09 10.09 0 0 0-2.269-.725c-.73-.164-1.298-.327-1.298-.73 0-.404.41-.65.976-.65a9.151 9.151 0 0 1 2.912.546c.082 0 .164 0 .164-.082v-1.636a.235.235 0 0 0-.164-.24 11.313 11.313 0 0 0-2.59-.485 4.362 4.362 0 0 0-2.672.725 2.312 2.312 0 0 0-.97 1.947c0 1.859 1.537 2.18 2.993 2.508.245.082.164.082.245.082.65.158 1.375.321 1.375.807 0 .15-.06.295-.164.403-.28.202-.628.29-.97.245a14.788 14.788 0 0 1-3.158-.545c-.076 0-.076.082-.076.082v1.636a.3.3 0 0 0 .158.24c.947.289 1.928.452 2.917.485 2.509 0 3.817-.97 3.817-2.726a2.453 2.453 0 0 0-1.21-1.865"/><path fill="#fff" d="M50.401 26.617c-.163 0-.322 0-.322-.245V25.4a.382.382 0 0 1 .36-.404h7.247a.38.38 0 0 1 .404.36v.933c0 .245-.082.327-.322.327H50.4Zm6.478-2.59h-.163v-.164c.245-.73 1.052-2.993 1.052-2.993a.289.289 0 0 0-.126-.387h-.038l-.403-.164h-.082c-.082 0-.158 0-.158.082-.164.403-.245.648-.41 1.052 0 .082-.08.082-.157.082h-.813c-.082 0-.082 0-.163-.082v-.163c.196-.664.44-1.313.73-1.942.082-.081.164-.327.486-.327h.163c.24.082.546.164.89.245.343.082.544.175.812.24a1.042 1.042 0 0 1 .643 1.462c-.082.322-.545 1.696-.889 2.508-.103.24-.147.545-.403.545l-.97.006Zm-3.32.082c-.164 0-.164-.164-.164-.246 0-.082-.082-4.291-.082-4.858a.262.262 0 0 1 .245-.24h1.135a.25.25 0 0 1 .24.24c0 .545-.077 4.776-.077 4.858 0 .082 0 .246-.163.246h-1.135Zm-3.321 0c-.273-.033-.306-.371-.404-.546-.322-.812-.725-2.104-.889-2.508-.163-.545-.163-1.216.65-1.461.24-.082.544-.159.806-.24.262-.082.649-.164.889-.246h.163a.546.546 0 0 1 .486.328c.295.626.539 1.275.73 1.94v.164a.267.267 0 0 1-.163.077h-.807c-.082 0-.164 0-.164-.077-.163-.409-.245-.73-.403-1.052a.312.312 0 0 0-.164-.082h-.054l-.404.158a.302.302 0 0 0-.194.272.3.3 0 0 0 .02.115s.812 2.263 1.052 2.994v.164h-1.15Zm3.816-6.162c-.081 0-.07 0-.163-.071a6.548 6.548 0 0 1-.889-.894s-.082-.082 0-.24c.284-.36.61-.687.97-.97h.164c.36.277.682.6.96.959a.148.148 0 0 1 .057.155.146.146 0 0 1-.024.052l-.033.033c-.26.343-.566.647-.91.905-.115.082-.088.07-.164.07h.032Z"/><defs><radialGradient id="a" cx="0" cy="0" r="1" gradientTransform="matrix(37.23383 -.84409 .80159 35.35902 51.644 23.501)" gradientUnits="userSpaceOnUse"><stop stop-color="#FFC429"/><stop offset="1" stop-color="#F26F23"/></radialGradient></defs></svg>
